X:1
T:Title
%%score 1 2
L:1/8
Q:1/4=100
M:4/4
K:C
V:1 treble nm="Grand Piano, Soprano"
V:2 bass nm="Choir Pad, Huntington Beach, McIntosh"
V:1
 [EG]2 [EG]>[FA] [EG]2 [CE][EG] | [Ec]2 [GB]>[FA] [EG]4 | [FA]2 [FA]>[FA] [Fd]2 [^Fc][Fc] | %3
w: By~Rigdon~McCoy~McIntosh,~1879 * * * * *|||
 [GB]2 [^FA]>[FA] G4 | [EG]2 [EG]>[FA] [EG]2 [CE][EG] | [Ec]2 [GB]>[FA] [EG]4 | %6
w: |||
 [FA]2 [FA]>[FA] [Fd]2 [Gc][Ad] | [Ge]2 [Ge]>[Fd] [Ec]3 [EG] | [EG]2 [CE]>[DF] [EG]3 [Ec] | %9
w: |||
 [Ec]2 [CA]>[DB] [Ec]4 | [Gd]2 [Gd]>[Ge] [Gd]2 [Gc][Ad] | [Ge]2 [Ge]>[Fd] [Ec]4- | [Ec]4 z4 |] %13
w: ||||
V:2
 [C,C]2 [C,C]>[C,C] [C,C]2 [C,G,][C,C] | [C,C]2 [C,C]>[C,C] [C,C]4 | %2
 [F,C]2 [F,A,]>[F,A,] [D,A,]2 [D,A,][D,A,] | [D,D]2 [D,D]>[D,D] [G,B,]4 | %4
 [C,C]2 [C,C]>[C,C] [C,C]2 [C,G,][C,C] | [C,C]2 [C,C]>[C,C] [C,C]4 | %6
 [F,C]2 [F,A,]>[F,A,] [D,A,]2 [E,C][F,C] | [G,C]2 [G,C]>G, [C,G,]3 [C,C] | %8
 [C,C]2 [C,C]>[C,C] [C,C]3 A, | A,2 A,>A, A,4 | [G,B,]2 [G,B,]>[G,C] [G,B,]2 [E,C][F,C] | %11
 [G,C]2 [G,C]>G, [C,G,]4- | [C,G,]4 z4 |] %13

